docs/assets/features/icon-02.svg

<svg width="36" height="36" viewBox="0 0 36 36" fill="none" xmlns="http://www.w3.org/2000/svg">
<path d="M30.5998 1.01245H5.39981C2.98105 1.01245 0.956055 2.9812 0.956055 5.4562V30.6562C0.956055 33.075 2.9248 35.0437 5.39981 35.0437H30.5998C33.0186 35.0437 34.9873 33.075 34.9873 30.6562V5.39995C34.9873 2.9812 33.0186 1.01245 30.5998 1.01245ZM5.39981 3.48745H30.5998C31.6123 3.48745 32.4561 4.3312 32.4561 5.39995V11.1937H3.4873V5.39995C3.4873 4.38745 4.38731 3.48745 5.39981 3.48745ZM3.4873 30.6V13.725H23.0623V32.5125H5.39981C4.38731 32.5125 3.4873 31.6125 3.4873 30.6ZM30.5998 32.5125H25.5373V13.725H32.4561V30.6C32.5123 31.6125 31.6123 32.5125 30.5998 32.5125Z" fill="white"/>
</svg>

<svg xmlns="http://www.w3.org/2000/svg" width="36" height="36" fill="none"><path fill="#fff" d="M30.6 1.012H5.4c-2.42 0-4.444 1.97-4.444 4.444v25.2c0 2.419 1.969 4.388 4.444 4.388h25.2a4.393 4.393 0 0 0 4.387-4.388V5.4A4.393 4.393 0 0 0 30.6 1.012M5.4 3.487h25.2c1.012 0 1.856.844 1.856 1.913v5.794H3.487V5.4c0-1.013.9-1.913 1.913-1.913M3.487 30.6V13.725h19.575v18.788H5.4c-1.013 0-1.913-.9-1.913-1.913M30.6 32.513h-5.063V13.725h6.92V30.6c.055 1.012-.845 1.913-1.857 1.913"/></svg>
